components/Company/logos/logo-zapier.svg

<svg height="140" viewBox="0 0 400 140" width="400" xmlns="http://www.w3.org/2000/svg"><path d="m132.9302 10.4366708h-7.333434l5.185761-5.16881438c-.407774-.57068818-.862713-1.10621181-1.35833-1.60003678-.495368-.49382496-1.031163-.94595125-1.603893-1.35246589l-5.185511 5.16881683v-7.3095746c-.678541-.11335703-1.376547-.17329303-2.086283-.17459598h-.014474c-.710983.00130295-1.407742.06123895-2.086283.17459598v7.3095746l-5.185512-5.16881683c-.572729.40651464-1.109772.85864093-1.604142 1.35246589l-.002495.00261864c-.495368.49250318-.949059 1.02672996-1.355585 1.59741814l5.185761 5.16881438h-7.333435s-.175188 1.3720158-.175188 2.0821402v.0091029c0 .7088025.060143 1.4058835.175188 2.083437h7.333435l-5.185761 5.1675175c.815797 1.1414013 1.817013 2.1407478 2.962222 2.9525002l5.185512-5.1688393v7.3095871c.678541.1133745 1.373802.173229 2.083787.1747254h.018218c.709735-.0014964 1.407742-.0613509 2.085035-.1747254v-7.3095871l5.187009 5.1688393c.571232-.4052153 1.107027-.8586385 1.602395-1.3524634h.001497c.49412-.493825.949059-1.0293486 1.356833-1.6000368l-5.187009-5.1675175h7.334682c.113798-.6762317.173941-1.370719.173941-2.0795216v-.0169338c0-.7088026-.060143-1.401993-.173941-2.0782247zm12.268642 53.2350592c-2.094268-1.9609847-3.191064-5.0542178-3.292883-9.2796996h26.414439c.049662-.5524076.100571-1.2170424.150233-1.9986431.051159-.7793561.077362-1.5205549.077362-2.2255916 0-2.5655156-.354369-4.9407436-1.060361-7.1284273-.70699-2.1876838-1.741148-4.073102-3.101973-5.6575018-1.363321-1.5843998-3.05356-2.8286262-5.071715-3.7341756-2.018403-.9055495-4.364723-1.3589477-7.03796-1.3589477-3.129425 0-5.841843.5406861-8.137253 1.6220583-2.29541 1.0828685-4.200017 2.5408256-5.71382 4.3753675-1.512555 1.8372852-2.636553 3.9987826-3.367251 6.4874848-.732195 2.4911962-1.098044 5.1686897-1.098044 8.0339768 0 2.9186574.379075 5.5961508 1.135727 8.0352237.756901 2.4393222 1.955766 4.5526866 3.594845 6.3375991 1.63933 1.7851619 3.72162 3.1675525 6.244625 4.1486683 2.521507.9811158 5.548864 1.471175 9.082318 1.471175 2.420937 0 4.627506-.1773191 6.622202-.5277176 1.990953-.3531419 3.820943-.8796125 5.486226-1.5843998-.05091-1.0566822-.201142-2.1238389-.453442-3.2067074-.253549-1.0813722-.580466-1.9986432-.984496-2.7530599-3.229996 1.2571949-6.633931 1.8866653-10.217047 1.8866653-4.087468 0-7.177712-.9823628-9.271732-2.9433474zm-70.7252437-30.477936c.5033532-.0990094 1.0209311-.1745758 1.5504876-.2254522.5305548-.0496293 1.0718404-.0755663 1.6273507-.0755663.5033532 0 1.033908.025937 1.5894183.0755663.5542625.0508764 1.0850668.1264428 1.5896678.2254522.0496615.1027503.1137972.4154903.1881647.9444549.0758649.5277176.1517297 1.0933431.2275945 1.696627.0758649.603284.1514802 1.1831249.227345 1.7355325.0758648.5536546.1125495.9055495.1125495 1.0566822.504601-.8052931 1.1097728-1.5843998 1.8170127-2.3388165.7057427-.7544167 1.5527336-1.434514 2.5357323-2.036551.9832482-.6045309 2.093021-1.0813722 3.3308157-1.433267 1.2340514-.3518949 2.6091016-.5289646 4.1241523-.5289646 2.2694567 0 4.3764528.3778318 6.3204893 1.1322486 1.9410413.7544167 3.6050773 1.9230767 4.9933533 3.5062295 1.387029 1.5856468 2.471846 3.5975078 3.254951 6.0353336.781608 2.4418162 1.172411 5.3185754 1.172411 8.6385077 0 6.6386176-1.803786 11.8322466-5.41036 15.5781438-3.60907 3.7473935-8.7164708 5.6210902-15.3269434 5.6210902-1.1097728 0-2.2442516-.0755663-3.4051832-.2266991-1.1621794-.1511327-2.1698841-.3531418-3.0273564-.6032839v17.7279196c-.6054214.0990094-1.2485256.1745758-1.9295622.2254521-.6810367.04938-1.3006827.0755664-1.8549452.0755664-.5555103 0-1.1724112-.0261864-1.8534479-.0755664-.6810366-.0508763-1.2994349-.1264427-1.8536974-.2254521zm-15.5158565 13.2029158c0-2.9680375-.7569015-5.0295279-2.2704549-6.1864664-1.513803-1.1556916-3.7086426-1.7342855-6.5845188-1.7342855-1.7673513 0-3.4181602.1394112-4.9569187.4144927-1.5397567.2773261-3.0418306.6409425-4.5032269 1.0930937-.9595404-1.6599661-1.4379381-3.6443938-1.4379381-5.9597673 1.7136968-.5524076 3.6053266-.9798688 5.6758877-1.2821343 2.0680654-.3022654 4.0602661-.4521512 5.9790974-.4521512 5.0445126 0 8.8796798 1.1454664 11.5032555 3.4321596 2.6235758 2.289187 3.9359876 5.9480457 3.9359876 10.9760772v24.2166514c-1.7658539.4027712-3.9097843.8170146-6.4325396 1.2444758-2.5242528.4259649-5.098167.6409425-7.720495.6409425-2.4730939 0-4.7046181-.2254522-6.6980665-.6788504-1.9934485-.4533982-3.6836871-1.1803815-5.0704664-2.1889307-1.3882766-1.0033118-2.460117-2.2879401-3.2170184-3.8464029-.7569015-1.5582134-1.1347284-3.4436317-1.1347284-5.6587487 0-2.1602504.4404653-4.0598842 1.3241409-5.6951603.8824278-1.6325328 2.0810424-2.9914804 3.5948453-4.073102 1.513803-1.0801252 3.2549509-1.8866653 5.222196-2.4131359 1.9687425-.5289646 4.0368079-.7933221 6.206692-.7933221 1.6143738 0 2.9385147.0391548 3.9724226.1132248 1.0341576.0770627 1.9046067.1643506 2.6118467.264607zm-58.9577418 24.4428517 20.4353743-31.6852521h-18.01313233c-.15165481-.9055494-.22746974-1.9101083-.22746974-3.0176668 0-1.0554352.07581493-2.037798.22746974-2.9433474h29.13856093l.3778269.9823628-20.5856491 31.7595715h19.2994406c.1502324 1.0073021.227345 2.036551.227345 3.0919862 0 1.0085491-.0771126 1.9622316-.227345 2.869028h-30.27333419zm56.0818655-17.4264023c1.1609317.1015033 2.1189748.2005127 2.8758763.3010185v12.2971169c-.9595405.2516385-2.0560868.4391828-3.2928833.5643785-1.2352992.1276897-2.4339137.1900382-3.5945958.1900382-.9073834 0-1.8666743-.04938-2.8758762-.1511327-1.009202-.1015033-1.9295623-.3778318-2.762079-.8299831-.8327664-.4533982-1.5267799-1.1060622-2.0810424-1.9622316-.5570076-.8534261-.8327663-2.036551-.8327663-3.5453844 0-2.3622595.8182921-4.122482 2.460117-5.2806675 1.637832-1.155941 4.0223337-1.7355325 7.1517582-1.7355325.806563 0 1.7908094.0521233 2.9514915.1523797zm28.834877 12.8991539c-1.0092019-.1498857-1.9946962-.4012748-2.9514915-.7544167v-15.690371c0-1.9126022.2770065-3.5568566.8340141-4.9419906.5542625-1.3823906 1.2849607-2.5278571 2.1933423-3.4334065.9086311-.9055494 1.9412913-1.5843998 3.1032212-2.0350546 1.1594343-.4533982 2.3712753-.6800973 3.6327777-.6800973 3.37898 0 5.814391 1.1828755 7.3032384 3.545135 1.4875993 2.3650028 2.2327723 5.5584924 2.2327723 9.581965 0 2.5148886-.316436 4.6893544-.946564 6.5238963-.631375 1.8372853-1.4888473 3.3578402-2.5736645 4.5644081-1.0838191 1.2078149-2.3830044 2.1028898-3.8968074 2.6787405-1.5138029.5785939-3.1778383.8678909-4.994851.8678909-1.6156216 0-2.9267856-.0768133-3.9359876-.2266991zm33.5280155-27.2335701h-4.920234c-.100571-.4025218-.176436-.8676415-.226097-1.3953591-.051159-.5277176-.075865-1.0437137-.075865-1.5467413 0-.5015312.024706-1.0187743.075865-1.5464919.049661-.5277176.125526-.9928373.226097-1.3968555h12.262902v38.7029485c-.557007.0990094-1.173908.1733288-1.854945.2242052-.681037.04938-1.300683.0755663-1.854945.0755663-.504601 0-1.098044-.0261863-1.777833-.0755663-.682284-.0508764-1.300682-.1251958-1.854945-.2242052zm42.686199 9.732599c0-1.4083277-.189662-2.7530598-.567489-4.0376881-.379074-1.2821343-.934585-2.4001674-1.665283-3.3563438-.733443-.9551788-1.665283-1.722564-2.801259-2.299911-1.134728-.5783446-2.485073-.8688885-4.048537-.8688885-3.078266 0-5.436564.9314864-7.077141 2.7922147-1.63908 1.8604788-2.635305 4.4509338-2.989424 7.7706167zm17.259251-15.8430002c-.504601.0508764-1.035156.1264428-1.589419.2254522v38.7017015c.605172.0990094 1.248276.1745758 1.930561.2254521.681037.0496294 1.298187.0755664 1.854945.0755664.553015 0 1.172661-.025937 1.85245-.0755664.681036-.0508763 1.299185-.1264427 1.854695-.2254521v-19.238c0-2.613898.290233-4.7519523.870699-6.4106715.579218-1.6599661 1.362073-2.9680374 2.345072-3.9244632.984246-.9551789 2.092771-1.6208113 3.330816-1.9986431 1.236547-.3765849 2.535982-.5656255 3.898055-.5656255h1.020931c.428736 0 .844495.0508763 1.249524.1498857.10082-.602037.189662-1.2312579.265527-1.8854182.074367-.652664.1123-1.2821343.1123-1.8854183 0-.5536546-.024706-1.0813722-.075865-1.5843998-.049662-.5015312-.126774-.9811158-.226097-1.434514-.301962-.048133-.670556-.0860409-1.098044-.1119779-.428736-.0261863-.845743-.0379079-1.248276-.0379079-2.725644 0-4.956919.6294704-6.698067 1.8854183-1.7399 1.2574443-3.141153 2.7428347-4.200017 4.4521808 0-.85592-.077112-1.8983867-.227594-3.1321386-.15148-1.230011-.30321-2.2255916-.453442-2.9800083-.45494-.0990094-.959541-.1745758-1.513803-.2254522-.556758-.04938-1.111021-.0755663-1.665283-.0755663-.555511 0-1.086315.0261863-1.589668.0755663zm-55.190671-17.7954305c.310946-.823449.48239-1.7133863.48239-2.6437006v-.0117215c0-.9303143-.171444-1.8215236-.48239-2.6437006-.82503-.31009643-1.718938-.48078165-2.652275-.48078165h-.011978c-.933338 0-1.827245.17068522-2.653523.48078165-.309698.822177-.481143 1.7133863-.48239 2.6437006v.0117215c.001247.9303143.172692 1.8215485.483638 2.6437006.82503.3101214 1.718937.4808066 2.652275.4808066h.011978c.933337 0 1.827245-.1706852 2.652275-.4808066z" fill="#ff4a00" fill-rule="evenodd" transform="translate(101 29)"/></svg>

<?xml version="1.0" encoding="UTF-8"?>
<svg width="400px" height="140px" viewBox="0 0 400 140" version="1.1" xmlns="http://www.w3.org/2000/svg" xmlns:xlink="http://www.w3.org/1999/xlink">
    <title>Artboard</title>
    <g id="Artboard" stroke="none" stroke-width="1" fill="none" fill-rule="evenodd">
        <g id="Group" transform="translate(101.000000, 29.000000)" fill="#FF4A00">
            <path d="M132.9302,10.4366708 L125.596766,10.4366708 L130.782527,5.26785642 C130.374753,4.69716824 129.919814,4.16164461 129.424197,3.66781964 C128.928829,3.17399468 128.393034,2.72186839 127.820304,2.31535375 L122.634793,7.48417058 L122.634793,0.174595979 C121.956252,0.0612389466 121.258246,0.00130295371 120.54851,0 L120.534036,0 C119.823053,0.00130295371 119.126294,0.0612389466 118.447753,0.174595979 L118.447753,7.48417058 L113.262241,2.31535375 C112.689512,2.72186839 112.152469,3.17399468 111.658099,3.66781964 L111.655604,3.67043828 C111.160236,4.16294146 110.706545,4.69716824 110.300019,5.26785642 L115.48578,10.4366708 L108.152345,10.4366708 C108.152345,10.4366708 107.977157,11.8086866 107.977157,12.518811 L107.977157,12.5279139 C107.977157,13.2367164 108.0373,13.9337974 108.152345,14.6113509 L115.48578,14.6113509 L110.300019,19.7788684 C111.115816,20.9202697 112.117032,21.9196162 113.262241,22.7313686 L118.447753,17.5625293 L118.447753,24.8721164 C119.126294,24.9854909 119.821555,25.0453454 120.53154,25.0468418 L120.549758,25.0468418 C121.259493,25.0453454 121.9575,24.9854909 122.634793,24.8721164 L122.634793,17.5625293 L127.821802,22.7313686 C128.393034,22.3261533 128.928829,21.8727301 129.424197,21.3789052 L129.425694,21.3789052 C129.919814,20.8850802 130.374753,20.3495566 130.782527,19.7788684 L125.595518,14.6113509 L132.9302,14.6113509 C133.043998,13.9351192 133.104141,13.2406319 133.104141,12.5318293 L133.104141,12.5148955 C133.104141,11.8060929 133.043998,11.1129025 132.9302,10.4366708 Z M145.198842,63.67173 C143.104574,61.7107453 142.007778,58.6175122 141.905959,54.3920304 L168.320398,54.3920304 C168.37006,53.8396228 168.420969,53.174988 168.470631,52.3933873 C168.52179,51.6140312 168.547993,50.8728324 168.547993,50.1677957 C168.547993,47.6022801 168.193624,45.2270521 167.487632,43.0393684 C166.780642,40.8516846 165.746484,38.9662664 164.385659,37.3818666 C163.022338,35.7974668 161.332099,34.5532404 159.313944,33.647691 C157.295541,32.7421415 154.949221,32.2887433 152.275984,32.2887433 C149.146559,32.2887433 146.434141,32.8294294 144.138731,33.9108016 C141.843321,34.9936701 139.938714,36.4516272 138.424911,38.2861691 C136.912356,40.1234543 135.788358,42.2849517 135.05766,44.7736539 C134.325465,47.2648501 133.959616,49.9423436 133.959616,52.8076307 C133.959616,55.7262881 134.338691,58.4037815 135.095343,60.8428544 C135.852244,63.2821766 137.051109,65.395541 138.690188,67.1804535 C140.329518,68.9656154 142.411808,70.348006 144.934813,71.3291218 C147.45632,72.3102376 150.483677,72.8002968 154.017131,72.8002968 C156.438068,72.8002968 158.644637,72.6229777 160.639333,72.2725792 C162.630286,71.9194373 164.460276,71.3929667 166.125559,70.6881794 C166.074649,69.6314972 165.924417,68.5643405 165.672117,67.481472 C165.418568,66.4000998 165.091651,65.4828288 164.687621,64.7284121 C161.457625,65.985607 158.05369,66.6150774 154.470574,66.6150774 C150.383106,66.6150774 147.292862,65.6327146 145.198842,63.67173 Z M74.4735983,33.193794 C74.9769515,33.0947846 75.4945294,33.0192182 76.0240859,32.9683418 C76.5546407,32.9187125 77.0959263,32.8927755 77.6514366,32.8927755 C78.1547898,32.8927755 78.6853446,32.9187125 79.2408549,32.9683418 C79.7951174,33.0192182 80.3259217,33.0947846 80.8305227,33.193794 C80.8801842,33.2965443 80.9443199,33.6092843 81.0186874,34.1382489 C81.0945523,34.6659665 81.1704171,35.231592 81.2462819,35.8348759 C81.3221468,36.4381599 81.3977621,37.0180008 81.4736269,37.5704084 C81.5494917,38.124063 81.5861764,38.4759579 81.5861764,38.6270906 C82.0907774,37.8217975 82.6959492,37.0426908 83.4031891,36.2882741 C84.1089318,35.5338574 84.9559227,34.8537601 85.9389214,34.2517231 C86.9221696,33.6471922 88.0319424,33.1703509 89.2697371,32.8184561 C90.5037885,32.4665612 91.8788387,32.2894915 93.3938894,32.2894915 C95.6633461,32.2894915 97.7703422,32.6673233 99.7143787,33.4217401 C101.65542,34.1761568 103.319456,35.3448168 104.707732,36.9279696 C106.094761,38.5136164 107.179578,40.5254774 107.962683,42.9633032 C108.744291,45.4051194 109.135094,48.2818786 109.135094,51.6018109 C109.135094,58.2404285 107.331308,63.4340575 103.724734,67.1799547 C100.115664,70.9273482 95.0082632,72.8010449 88.3977906,72.8010449 C87.2880178,72.8010449 86.153539,72.7254786 84.9926074,72.5743458 C83.830428,72.4232131 82.8227233,72.221204 81.965251,71.9710619 L81.965251,89.6989815 C81.3598296,89.7979909 80.7167254,89.8735573 80.0356888,89.9244336 C79.3546521,89.9738136 78.7350061,90 78.1807436,90 C77.6252333,90 77.0083324,89.9738136 76.3272957,89.9244336 C75.6462591,89.8735573 75.0278608,89.7979909 74.4735983,89.6989815 L74.4735983,33.193794 Z M58.9577418,46.3967098 C58.9577418,43.4286723 58.2008403,41.3671819 56.6872869,40.2102434 C55.1734839,39.0545518 52.9786443,38.4759579 50.1027681,38.4759579 C48.3354168,38.4759579 46.6846079,38.6153691 45.1458494,38.8904506 C43.6060927,39.1677767 42.1040188,39.5313931 40.6426225,39.9835443 C39.6830821,38.3235782 39.2046844,36.3391505 39.2046844,34.023777 C40.9183812,33.4713694 42.810011,33.0439082 44.8805721,32.7416427 C46.9486375,32.4393773 48.9408382,32.2894915 50.8596695,32.2894915 C55.9041821,32.2894915 59.7393493,33.4349579 62.362925,35.7216511 C64.9865008,38.0108381 66.2989126,41.6696968 66.2989126,46.6977283 L66.2989126,70.9143797 C64.5330587,71.3171509 62.3891283,71.7313943 59.866373,72.1588555 C57.3421202,72.5848204 54.768206,72.799798 52.145878,72.799798 C49.6727841,72.799798 47.4412599,72.5743458 45.4478115,72.1209476 C43.454363,71.6675494 41.7641244,70.9405661 40.3773451,69.9320169 C38.9890685,68.9287051 37.9172281,67.6440768 37.1603267,66.085614 C36.4034252,64.5274006 36.0255983,62.6419823 36.0255983,60.4268653 C36.0255983,58.2666149 36.4660636,56.3669811 37.3497392,54.731705 C38.232167,53.0991722 39.4307816,51.7402246 40.9445845,50.658603 C42.4583875,49.5784778 44.1995354,48.7719377 46.1667805,48.2454671 C48.135523,47.7165025 50.2035884,47.452145 52.3734725,47.452145 C53.9878463,47.452145 55.3119872,47.4912998 56.3458951,47.5653698 C57.3800527,47.6424325 58.2505018,47.7297204 58.9577418,47.8299768 L58.9577418,46.3967098 Z M0,70.8395615 L20.4353743,39.1543094 L2.42224197,39.1543094 C2.27058716,38.24876 2.19477223,37.2442011 2.19477223,36.1366426 C2.19477223,35.0812074 2.27058716,34.0988446 2.42224197,33.1932952 L31.5608029,33.1932952 L31.9386298,34.175658 L11.3529807,65.9352295 L30.6524213,65.9352295 C30.8026537,66.9425316 30.8797663,67.9717805 30.8797663,69.0272157 C30.8797663,70.0357648 30.8026537,70.9894473 30.6524213,71.8962437 L0.379087108,71.8962437 L0,70.8395615 Z M56.0818655,53.4131592 C57.2427972,53.5146625 58.2008403,53.6136719 58.9577418,53.7141777 L58.9577418,66.0112946 C57.9982013,66.2629331 56.901655,66.4504774 55.6648585,66.5756731 C54.4295593,66.7033628 53.2309448,66.7657113 52.0702627,66.7657113 C51.1628793,66.7657113 50.2035884,66.7163313 49.1943865,66.6145786 C48.1851845,66.5130753 47.2648242,66.2367468 46.4323075,65.7845955 C45.5995411,65.3311973 44.9055276,64.6785333 44.3512651,63.8223639 C43.7942575,62.9689378 43.5184988,61.7858129 43.5184988,60.2769795 C43.5184988,57.91472 44.3367909,56.1544975 45.9786158,54.996312 C47.6164478,53.840371 50.0009495,53.2607795 53.130374,53.2607795 C53.936937,53.2607795 54.9211834,53.3129028 56.0818655,53.4131592 Z M84.9167425,66.3123131 C83.9075406,66.1624274 82.9220463,65.9110383 81.965251,65.5578964 L81.965251,49.8675254 C81.965251,47.9549232 82.2422575,46.3106688 82.7992651,44.9255348 C83.3535276,43.5431442 84.0842258,42.3976777 84.9926074,41.4921283 C85.9012385,40.5865789 86.9338987,39.9077285 88.0958286,39.4570737 C89.2552629,39.0036755 90.4671039,38.7769764 91.7286063,38.7769764 C95.1075863,38.7769764 97.5429973,39.9598519 99.0318447,42.3221114 C100.519444,44.6871142 101.264617,47.8806038 101.264617,51.9040764 C101.264617,54.418965 100.948181,56.5934308 100.318053,58.4279727 C99.686678,60.265258 98.8292057,61.7858129 97.7443885,62.9923808 C96.6605694,64.2001957 95.3613841,65.0952706 93.8475811,65.6711213 C92.3337782,66.2497152 90.6697428,66.5390122 88.8527301,66.5390122 C87.2371085,66.5390122 85.9259445,66.4621989 84.9167425,66.3123131 Z M118.444758,39.078743 L113.524524,39.078743 C113.423953,38.6762212 113.348088,38.2111015 113.298427,37.6833839 C113.247268,37.1556663 113.222562,36.6396702 113.222562,36.1366426 C113.222562,35.6351114 113.247268,35.1178683 113.298427,34.5901507 C113.348088,34.0624331 113.423953,33.5973134 113.524524,33.1932952 L125.787426,33.1932952 L125.787426,71.8962437 C125.230419,71.9952531 124.613518,72.0695725 123.932481,72.1204489 C123.251444,72.1698289 122.631798,72.1960152 122.077536,72.1960152 C121.572935,72.1960152 120.979492,72.1698289 120.299703,72.1204489 C119.617419,72.0695725 118.999021,71.9952531 118.444758,71.8962437 L118.444758,39.078743 Z M161.130957,48.811342 C161.130957,47.4030143 160.941295,46.0582822 160.563468,44.7736539 C160.184394,43.4915196 159.628883,42.3734865 158.898185,41.4173101 C158.164742,40.4621313 157.232902,39.6947461 156.096926,39.1173991 C154.962198,38.5390545 153.611853,38.2485106 152.048389,38.2485106 C148.970123,38.2485106 146.611825,39.179997 144.971248,41.0407253 C143.332168,42.9012041 142.335943,45.4916591 141.981824,48.811342 L161.130957,48.811342 Z M178.390208,32.9683418 C177.885607,33.0192182 177.355052,33.0947846 176.800789,33.193794 L176.800789,71.8954955 C177.405961,71.9945049 178.049065,72.0700713 178.73135,72.1209476 C179.412387,72.170577 180.029537,72.196514 180.586295,72.196514 C181.13931,72.196514 181.758956,72.170577 182.438745,72.1209476 C183.119781,72.0700713 183.73793,71.9945049 184.29344,71.8954955 L184.29344,52.6574955 C184.29344,50.0435975 184.583673,47.9055432 185.164139,46.246824 C185.743357,44.5868579 186.526212,43.2787866 187.509211,42.3223608 C188.493457,41.3671819 189.601982,40.7015495 190.840027,40.3237177 C192.076574,39.9471328 193.376009,39.7580922 194.738082,39.7580922 L195.759013,39.7580922 C196.187749,39.7580922 196.603508,39.8089685 197.008537,39.9079779 C197.109357,39.3059409 197.198199,38.67672 197.274064,38.0225597 C197.348431,37.3698957 197.386364,36.7404254 197.386364,36.1371414 C197.386364,35.5834868 197.361658,35.0557692 197.310499,34.5527416 C197.260837,34.0512104 197.183725,33.5716258 197.084402,33.1182276 C196.78244,33.0700946 196.413846,33.0321867 195.986358,33.0062497 C195.557622,32.9800634 195.140615,32.9683418 194.738082,32.9683418 C192.012438,32.9683418 189.781163,33.5978122 188.040015,34.8537601 C186.300115,36.1112044 184.898862,37.5965948 183.839998,39.3059409 C183.839998,38.4500209 183.762886,37.4075542 183.612404,36.1738023 C183.460924,34.9437913 183.309194,33.9482107 183.158962,33.193794 C182.704022,33.0947846 182.199421,33.0192182 181.645159,32.9683418 C181.088401,32.9189618 180.534138,32.8927755 179.979876,32.8927755 C179.424365,32.8927755 178.893561,32.9189618 178.390208,32.9683418 Z M123.199537,15.1729113 C123.510483,14.3494623 123.681927,13.459525 123.681927,12.5292107 L123.681927,12.5174892 C123.681927,11.5871749 123.510483,10.6959656 123.199537,9.8737886 C122.374507,9.56369217 121.480599,9.39300695 120.547262,9.39300695 L120.535284,9.39300695 C119.601946,9.39300695 118.708039,9.56369217 117.881761,9.8737886 C117.572063,10.6959656 117.400618,11.5871749 117.399371,12.5174892 L117.399371,12.5292107 C117.400618,13.459525 117.572063,14.3507592 117.883009,15.1729113 C118.708039,15.4830327 119.601946,15.6537179 120.535284,15.6537179 L120.547262,15.6537179 C121.480599,15.6537179 122.374507,15.4830327 123.199537,15.1729113 Z" id="Shape"></path>
        </g>
    </g>
</svg>
